frontend/public/svg/interface/pencil-3.svg

<svg width="150" height="137" viewBox="0 0 150 137" fill="none" xmlns="http://www.w3.org/2000/svg">
<g clip-path="url(#clip0)">
<path d="M33.2578 126.793C34.1673 126.903 35.0832 126.951 35.9993 126.937C37.675 126.943 39.3507 126.946 41.0264 126.945H43.9922H46.96C47.0945 126.945 47.2258 126.904 47.3367 126.828C47.4476 126.752 47.5329 126.644 47.5813 126.518C47.9021 126.5 48.2238 126.506 48.5438 126.537C51.8477 126.926 54.1851 125.858 55.6952 123.266C56.0707 122.714 56.5297 122.223 57.0557 121.812C57.3485 121.552 57.6387 121.296 57.9088 121.024C58.968 119.942 60.0466 118.876 61.1233 117.81C63.4859 115.473 65.9291 113.058 68.1453 110.502C83.311 93.0128 100.332 74.3619 120.18 53.4842C123.094 50.4195 126.009 47.3561 128.926 44.2941C134.934 37.9856 141.147 31.4615 147.233 25.0205C148.852 23.309 149.637 21.4112 149.508 19.5328C149.379 17.631 148.32 15.8286 146.447 14.3203C144.85 13.036 143.235 11.7738 141.62 10.5116C140.526 9.6558 139.432 8.79777 138.341 7.93726C137.397 7.19013 136.458 6.43639 135.524 5.6763C133.814 4.29461 132.046 2.86623 130.258 1.52091C127.746 -0.370471 126.241 -0.320538 123.82 1.73316C123.496 2.00781 123.205 2.30655 122.925 2.59613C122.815 2.70911 122.704 2.82337 122.593 2.93504L114.877 10.6252C109.513 15.9732 104.146 21.319 98.7759 26.6626C76.271 49.0869 55.2073 72.9173 35.7099 98.0116C34.0124 100.182 32.816 102.701 32.2069 105.39C31.4017 108.844 30.4404 112.328 29.5114 115.698C29.1624 116.963 28.8158 118.229 28.4716 119.494C28.2045 120.302 28.1151 121.159 28.2099 122.004C28.3046 122.85 28.5811 123.666 29.0203 124.394C29.5116 125.077 30.1449 125.645 30.8765 126.06C31.608 126.474 32.4205 126.724 33.2578 126.793ZM47.7691 119.102L42.0942 119.915L37.4355 113.985L38.5485 107.622L47.7691 119.102ZM111.151 25.2147L122.777 39.4601L52.0985 115.946L41.1432 102.131C62.9846 75.1658 86.3596 49.4853 111.153 25.218L111.151 25.2147ZM115.652 20.5399L127.905 8.92737L140.683 20.9749C138.571 23.5508 136.313 26.0024 133.919 28.3171C131.919 30.3299 129.858 32.403 127.898 34.6904L115.652 20.5399Z" fill="black"/>
<path d="M1.29569 106.414C1.55328 107.185 1.88031 107.932 2.27265 108.643C4.89181 113.065 5.61015 116.816 4.60473 120.802C4.30537 122.227 4.1766 123.683 4.22119 125.138C4.21665 125.615 4.21274 126.091 4.19525 126.566C4.1092 127.678 4.30079 128.794 4.75261 129.814C5.20443 130.834 5.90234 131.724 6.78339 132.406C8.69957 133.97 10.8307 135.249 13.1107 136.203C14.1367 136.587 15.2225 136.785 16.3175 136.788C18.9141 136.706 21.3958 135.696 23.314 133.939C24.5222 132.921 25.7329 131.417 24.3505 128.801C24.2713 128.651 24.1379 128.537 23.9775 128.482C23.8171 128.427 23.6418 128.435 23.4876 128.506C23.0483 128.705 22.6226 128.902 22.2061 129.096C21.3082 129.513 20.457 129.906 19.5987 130.259C17.113 131.273 14.7608 130.852 12.1928 128.935C10.4326 127.619 10.5415 126.032 10.9315 123.574L10.9509 123.45C11.5038 120.519 11.7975 117.544 11.8287 114.561C11.725 109.305 7.09952 104.719 1.51332 104.335C1.40094 104.329 1.28871 104.351 1.18688 104.399C1.08505 104.447 0.996916 104.52 0.93034 104.61C0.864116 104.703 0.822294 104.81 0.80903 104.922C0.795767 105.035 0.811379 105.149 0.854422 105.254C1.01638 105.655 1.15965 106.043 1.29569 106.414Z" fill="black"/>
</g>
<defs>
<clipPath id="clip0">
<rect width="149" height="137" fill="white" transform="translate(0.777344)"/>
</clipPath>
</defs>
</svg>

<svg xmlns="http://www.w3.org/2000/svg" width="150" height="137" fill="none" viewBox="0 0 150 137"><g fill="#000" clip-path="url(#a)"><path d="M33.258 126.793q1.366.165 2.741.144 2.514.01 5.027.008h5.934a.67.67 0 0 0 .621-.427q.482-.027.963.019c3.304.389 5.641-.679 7.151-3.271a6.5 6.5 0 0 1 1.36-1.454c.294-.26.584-.516.854-.788 1.059-1.082 2.138-2.148 3.214-3.214 2.363-2.337 4.806-4.752 7.022-7.308 15.166-17.49 32.187-36.14 52.035-57.018q4.37-4.597 8.746-9.19a6788 6788 0 0 0 18.307-19.273c1.619-1.712 2.404-3.61 2.275-5.488-.129-1.902-1.188-3.704-3.061-5.213a442 442 0 0 0-4.827-3.808 1042 1042 0 0 1-3.279-2.575q-1.416-1.12-2.817-2.26c-1.71-1.382-3.478-2.81-5.266-4.156-2.512-1.891-4.017-1.842-6.438.212a13 13 0 0 0-.895.863l-.332.339-7.716 7.69a23194 23194 0 0 1-16.101 16.038A752 752 0 0 0 35.71 98.012a18.7 18.7 0 0 0-3.503 7.378c-.805 3.454-1.767 6.938-2.696 10.308q-.523 1.898-1.04 3.796a5.9 5.9 0 0 0 .55 4.9 5.8 5.8 0 0 0 4.238 2.399m14.511-7.691-5.675.813-4.659-5.93 1.113-6.363zm63.382-93.887 11.626 14.245L52.1 115.946l-10.956-13.815a902 902 0 0 1 70.01-76.913zm4.501-4.675 12.253-11.613 12.778 12.048a87 87 0 0 1-6.764 7.342c-2 2.013-4.061 4.086-6.021 6.373zM1.296 106.414c.257.771.584 1.518.977 2.229 2.619 4.422 3.337 8.173 2.332 12.159a18.4 18.4 0 0 0-.384 4.336c-.004.477-.008.953-.026 1.428a6.74 6.74 0 0 0 2.588 5.84 25.7 25.7 0 0 0 6.328 3.797 9.2 9.2 0 0 0 3.206.585 10.87 10.87 0 0 0 6.997-2.849c1.208-1.018 2.419-2.522 1.037-5.138a.666.666 0 0 0-.863-.295q-.658.299-1.282.59c-.898.417-1.749.81-2.607 1.163-2.486 1.014-4.838.593-7.406-1.324-1.76-1.316-1.652-2.903-1.261-5.361l.019-.124c.553-2.931.846-5.906.878-8.889-.104-5.256-4.73-9.842-10.316-10.226a.68.68 0 0 0-.583.275.68.68 0 0 0-.076.644c.162.401.306.789.442 1.16"/></g><defs><clipPath id="a"><path fill="#fff" d="M.777 0h149v137h-149z"/></clipPath></defs></svg>
